X:1
T:Title
%%score { ( 1 3 ) | ( 2 4 ) }
L:1/8
Q:1/4=100
M:4/4
K:Ab
V:1 treble nm="Grand Piano"
V:3 treble 
V:2 bass 
V:4 bass 
V:1
 [CEA]2 [CEA]>[CEA] [CEA]2 [DEB][CEA] | (3[B,DG][B,DG][B,DG] [B,DF]>[A,DG] [A,CA]2 [A,CE]2 | %2
w: W.~H.~Doane * * * * *||
 [CEA]2 [A,EA]>[EB] [Ec]2 [CFA]2 | [B,EG]2 [A,=DF]2 [G,E]4 | [CEA]2 [CEA]>[CEA] [CEA]2 [DEB][CEA] | %5
w: |||
 (3GGG F>G [CA]2 [Ec]2 | B2 c>d c2 [DFB]2 | [CEA]2 [DEG]2 [CEA]4 | [Ae]4 z4 | e4 z4 | %10
w: |||||
 [GB]2 [GB]>[Ac] [GB]2 E2 | [Ec]3 [DB] [CA]4 | [Ae]4 z4 | e4 z4 | %14
w: ||||
 [EG]2 [EB]>[CEA] [B,EG]2 [A,=DF]2 | [G,E]6 z2 | [CEA]2 [CEA]>[CEA] [CEA]2 [DEB][CEA] | %17
w: |||
 (3GGG F>G [CA]2 B2 | c2 c>c d2 c2 | B4 [Ge]4 | [Ae]4 z4 | e4 z4 | B2 c>d c2 [DFB]2 | %23
w: ||||||
 [CEA]2 [DEG]2 [CEA]4 |] %24
w: |
V:2
 A,,2 A,,>A,, A,,2 A,,A,, | (3E,E,E, E,>E, A,,2 A,,2 | A,,2 C,>[E,G,] A,2 A,,2 | B,,2 B,,2 E,4 | %4
 A,,2 A,,>A,, A,,2 A,,A,, | (3[E,B,D][E,B,D][E,B,D] [E,A,D]>[E,B,D] [A,,A,]2 [A,,A,]2 | %6
 [E,G,E]2 [E,A,E]>[E,B,E] [A,E]2 D,2 | E,2 E,2 A,,4 | [A,C]2 A,2[K:treble] [A,EA]2 [A,C]2 | %9
 A4 z4[K:bass] | [E,E]2 [E,E]>[E,E] [E,E]2 [E,G,]2 | [A,,A,]4 [A,,A,]4 | %12
 [A,C]2 A,2[K:treble] [A,EA]2 [A,C]2 | A4 z4[K:bass] | [B,,B,]2 [B,,G,]>B,, B,,2 C,2 | E,6 z2 | %16
 A,,2 A,,>A,, A,,2 A,,A,, | (3[E,B,D][E,B,D][E,B,D] [E,A,D]>[E,B,D] [A,,A,]2 [E,G,E]2 | %18
 [A,E]2 [A,E]>[A,E] [G,B,E]2 [A,E]2 | [E,G,E]4 [E,D]4 | [A,C]2 A,2[K:treble] [A,EA]2 [A,C]2 | %21
 A4 z4[K:bass] | [E,G,E]2 [E,A,E]>[E,B,E] [A,E]2 D,2 | E,2 E,2 A,,4 |] %24
V:3
 x8 | x8 | x8 | x8 | x8 | x8 | x8 | x8 | z2 C2 c2 A2 | z2 C2 c2 A2 | x8 | x8 | z2 C2 c2 A2 | %13
 z2 C2 c2 [EA]2 | x8 | x8 | x8 | x8 | x8 | x8 | z2 C2 c2 A2 | z2 C2 c2 [EA]2 | x8 | x8 |] %24
V:4
 x8 | x8 | x8 | x8 | x8 | x8 | x8 | x8 | x4[K:treble] x4 | [A,C]2 A,2 [A,EA]2[K:bass] [A,CE]2 | %10
 x8 | x8 | x4[K:treble] x4 | [A,C]2 A,2 [A,EA]2[K:bass] [C,A,]2 | x8 | x8 | x8 | x8 | x8 | x8 | %20
 x4[K:treble] x4 | [A,C]2 A,2 [A,EA]2[K:bass] [C,A,]2 | x8 | x8 |] %24

